shield-edit.svg

<svg fill="currentColor" viewBox="0 0 24 24"><path d="m21.7 14.4-1 1-2.1-2.1 1-1c.2-.2.6-.2.8 0l1.3 1.3c.2.2.2.5 0 .8M12 19.9l6.1-6.1 2.1 2.1-6.1 6.1H12zm-2-.8 11-11V5l-9-4-9 4v6c0 4.8 2.9 9.3 7 11.3z"/></svg>

<svg  viewBox="0 0 24 24" fill="currentColor"><path  d="M21.7 14.4L20.7 15.4L18.6 13.3L19.6 12.3C19.8 12.1 20.2 12.1 20.4 12.3L21.7 13.6C21.9 13.8 21.9 14.1 21.7 14.4M12 19.9L18.1 13.8L20.2 15.9L14.1 22H12V19.9M10 19.1L21 8.1V5L12 1L3 5V11C3 15.8 5.9 20.3 10 22.3V19.1Z"/></svg>
